korla-plus/mimetypes/symbolic/inode-directory-symbolic.svg

<?xml version="1.0" encoding="UTF-8" standalone="no"?>
<svg
   xmlns:dc="http://purl.org/dc/elements/1.1/"
   xmlns:cc="http://creativecommons.org/ns#"
   xmlns:rdf="http://www.w3.org/1999/02/22-rdf-syntax-ns#"
   xmlns:svg="http://www.w3.org/2000/svg"
   xmlns="http://www.w3.org/2000/svg"
   xmlns:sodipodi="http://sodipodi.sourceforge.net/DTD/sodipodi-0.dtd"
   xmlns:inkscape="http://www.inkscape.org/namespaces/inkscape"
   style="clip-rule:evenodd;fill-rule:evenodd;stroke-linejoin:round;stroke-miterlimit:1.41421"
   version="1.1"
   viewBox="0 0 36 36"
   id="svg10"
   sodipodi:docname="inode-directory-symbolic.svg"
   inkscape:version="0.92.5 (2060ec1f9f, 2020-04-08)">
  <metadata
     id="metadata16">
    <rdf:RDF>
      <cc:Work
         rdf:about="">
        <dc:format>image/svg+xml</dc:format>
        <dc:type
           rdf:resource="http://purl.org/dc/dcmitype/StillImage" />
      </cc:Work>
    </rdf:RDF>
  </metadata>
  <defs
     id="defs14" />
  <sodipodi:namedview
     pagecolor="#ffffff"
     bordercolor="#666666"
     borderopacity="1"
     objecttolerance="10"
     gridtolerance="10"
     guidetolerance="10"
     inkscape:pageopacity="0"
     inkscape:pageshadow="2"
     inkscape:window-width="1908"
     inkscape:window-height="1017"
     id="namedview12"
     showgrid="false"
     inkscape:zoom="6.5555556"
     inkscape:cx="-9.3050847"
     inkscape:cy="18"
     inkscape:window-x="8"
     inkscape:window-y="36"
     inkscape:window-maximized="0"
     inkscape:current-layer="svg10" />
  <path
     d="m9.879 1.975c0.954 0 1.41 0.494 2.121 1.436 0.712 0.942 1.037 1.538 2.342 1.589h19.537c1.175 0 2.121 0.946 2.121 2.121v21.758c0 1.175-0.946 2.121-2.121 2.121h-31.758c-1.175 0-2.121-0.946-2.121-2.121v-24.783c0-1.175 0.946-2.121 2.121-2.121h7.758zm-6.592 2c-0.713 0-1.287 0.574-1.287 1.287v22.451c0 0.713 0.574 1.287 1.287 1.287h29.426c0.713 0 1.287-0.574 1.287-1.287v-19.426c0-0.713-0.574-1.287-1.287-1.287h-18.957c-0.813 0-2.257-0.981-2.771-1.496-0.515-0.514-0.937-1.529-2.272-1.529h-5.426z"
     style="fill-opacity:1;fill-rule:nonzero;fill:#dfdfdf"
     id="path2" />
  <path
     d="m34 9.195h-32v3.092c3e-3 -0.584 0.493-1.261 1.287-1.287h29.426c0.697 0.022 1.288 0.579 1.287 1.287v-3.092z"
     style="fill-opacity:0.82775122;fill:#dfdfdf"
     id="path4" />
  <path
     d="m3.287 11h29.426c0.713 0 1.287 0.574 1.287 1.287v15.426c0 0.713-0.574 1.287-1.287 1.287h-29.426c-0.713 0-1.287-0.574-1.287-1.287v-15.426c0-0.713 0.574-1.287 1.287-1.287z"
     style="fill-opacity:0.46889952;fill-rule:nonzero;fill:#dfdfdf"
     id="path6" />
  <path
     d="m2 27v0.713c0 0.713 0.574 1.287 1.287 1.287h29.426c0.713 0 1.287-0.574 1.287-1.287v-0.713h-32z"
     style="fill-opacity:0.64114833;fill-rule:nonzero;fill:#dfdfdf"
     id="path8" />
</svg>

<svg style="clip-rule:evenodd;fill-rule:evenodd;stroke-linejoin:round;stroke-miterlimit:2" version="1.1" viewBox="0 0 16 16" xmlns="http://www.w3.org/2000/svg">
 <g transform="matrix(.444444 0 0 .444444 9.99201e-16 1.21152)">
  <path d="m34 9.195h-32v3.092c3e-3 -0.584 0.493-1.261 1.287-1.287h29.426c0.697 0.022 1.288 0.579 1.287 1.287v-3.092z" style="fill-opacity:.5;fill:rgb(68,68,68)"/>
 </g>
 <g transform="matrix(.444444 0 0 .444444 9.99201e-16 1.21152)">
  <path d="M3.287,11L32.713,11C33.426,11 34,11.574 34,12.287L34,27.713C34,28.426 33.426,29 32.713,29L3.287,29C2.574,29 2,28.426 2,27.713L2,12.287C2,11.574 2.574,11 3.287,11Z" style="fill-opacity:.3;fill-rule:nonzero;fill:rgb(68,68,68)"/>
 </g>
 <g transform="matrix(.444444 0 0 .444444 9.99201e-16 1.21152)">
  <path d="m9.879 1.975c0.954 0 1.41 0.494 2.121 1.436 0.712 0.942 1.037 1.538 2.342 1.589h19.537c1.175 0 2.121 0.946 2.121 2.121v21.758c0 1.175-0.946 2.121-2.121 2.121h-31.758c-1.175 0-2.121-0.946-2.121-2.121v-24.783c0-1.175 0.946-2.121 2.121-2.121h7.758zm-6.592 2c-0.713 0-1.287 0.574-1.287 1.287v22.451c0 0.713 0.574 1.287 1.287 1.287h29.426c0.713 0 1.287-0.574 1.287-1.287v-19.426c0-0.713-0.574-1.287-1.287-1.287h-18.957c-0.813 0-2.257-0.981-2.771-1.496-0.515-0.514-0.937-1.529-2.272-1.529h-5.426z" style="fill-rule:nonzero;fill:rgb(68,68,68)"/>
 </g>
 <g transform="matrix(.444444 0 0 .444444 9.99201e-16 1.21152)">
  <path d="M2,27L2,27.713C2,28.426 2.574,29 3.287,29L32.713,29C33.426,29 34,28.426 34,27.713L34,27L2,27Z" style="fill-opacity:.5;fill-rule:nonzero;fill:rgb(68,68,68)"/>
 </g>
</svg>
